X:172
T: DANKT DEM HERRN DASS NEUES WERDE
N: F0308
O: Europa, Mitteleuropa, Deutschland
R: Jugend - Lied, Dank, religioes
M: 3/4
L: 1/16
K: C
 | G,3F,E,2E2D2C2 | C4B,4
B,3C | D3EB,4A,4 | G,4z8 |
G,3A,B,2G,2A,2B,2 | C4G,4z4 |
D3EF2D2C2B,2 | C8z4

@@@ Tune index: 5603
